icons/desktop/16/cursor-arrow-16.svg

<svg width="16" height="16" viewBox="0 0 16 16" fill="none" xmlns="http://www.w3.org/2000/svg">
<path fill-rule="evenodd" clip-rule="evenodd" d="M2.53726 2.5373C3.1732 1.90236 4.09265 1.69248 4.94058 1.99336L12.4816 4.66719C13.3236 4.96619 13.907 5.70204 14.005 6.59004C14.103 7.47698 13.6936 8.32307 12.9386 8.79805L12.5128 9.06465L14.4103 10.9631C15.1391 11.6911 15.1989 12.8669 14.549 13.6418C14.4191 13.7967 14.2752 13.9546 14.1144 14.1154C13.9534 14.2764 13.7958 14.421 13.6398 14.551C13.2808 14.8529 12.8338 15.0012 12.3869 15.0012L12.3878 15.0002C11.87 15.0001 11.352 14.8021 10.9611 14.4104L9.06265 12.5129L8.79507 12.9387C8.32008 13.6937 7.47203 14.1001 6.58804 14.0041C5.70004 13.9051 4.96419 13.3207 4.66519 12.4807L1.99332 4.94062C1.6924 4.0927 1.90137 3.17227 2.53726 2.5373ZM4.43863 3.40644C4.13877 3.2977 3.82371 3.371 3.59683 3.59687C3.36992 3.82285 3.29943 4.13773 3.40738 4.43867L6.08023 11.9777C6.18623 12.2777 6.43706 12.4769 6.75406 12.5119C7.06296 12.5539 7.35753 12.4077 7.52554 12.1389L8.29507 10.9182C8.41705 10.7252 8.6189 10.5975 8.84585 10.5715C8.87379 10.5685 8.90289 10.5666 8.92984 10.5666L8.92886 10.5676C9.12686 10.5676 9.31814 10.6463 9.45914 10.7883L12.0216 13.3498C12.2026 13.5328 12.4899 13.5546 12.6759 13.3996C12.7989 13.2956 12.9259 13.1808 13.0529 13.0539C13.1798 12.927 13.2946 12.7999 13.3996 12.676C13.5536 12.492 13.5318 12.2047 13.3488 12.0227L10.7873 9.46016C10.6263 9.29916 10.5474 9.0719 10.5724 8.8459C10.5974 8.61793 10.7251 8.41614 10.9191 8.29414L12.1408 7.52656C12.4097 7.3586 12.5487 7.07002 12.5138 6.7541C12.4788 6.4391 12.2796 6.18825 11.9796 6.08125L4.43863 3.40644Z" fill="black"/>
</svg>

<!-- This Source Code Form is subject to the terms of the Mozilla Public
   - License, v. 2.0. If a copy of the MPL was not distributed with this
   - file, You can obtain one at http://mozilla.org/MPL/2.0/. -->
<svg xmlns="http://www.w3.org/2000/svg" width="16" height="16" fill="context-fill" fill-opacity="context-fill-opacity" viewBox="0 0 16 16">
    <path fill-rule="evenodd" d="M2.537 2.537a2.29 2.29 0 0 1 2.404-.544l7.54 2.674a2.29 2.29 0 0 1 1.524 1.923 2.29 2.29 0 0 1-1.066 2.208l-.426.267 1.897 1.898c.73.728.789 1.904.139 2.679a7.3 7.3 0 0 1-.91.909c-.358.302-.805.45-1.252.45a2 2 0 0 1-1.426-.59l-1.898-1.898-.268.426a2.3 2.3 0 0 1-2.207 1.065 2.3 2.3 0 0 1-1.923-1.523L1.993 4.94a2.29 2.29 0 0 1 .544-2.404m1.902.87a.79.79 0 0 0-.842.19.79.79 0 0 0-.19.842l2.673 7.539c.106.3.357.499.674.534a.78.78 0 0 0 .772-.373l.77-1.22a.75.75 0 0 1 .634-.352h-.001c.198 0 .39.08.53.221l2.563 2.562a.49.49 0 0 0 .654.05 6 6 0 0 0 .724-.724c.154-.184.132-.471-.051-.653L10.787 9.46a.753.753 0 0 1 .132-1.166l1.222-.767a.79.79 0 0 0 .373-.773.79.79 0 0 0-.534-.673z" clip-rule="evenodd" />
</svg>
